outputs/icons/maps/navigation_round.svg

<svg width="1200" height="1200" viewBox="0 0 1200 1200" fill="none" xmlns="http://www.w3.org/2000/svg"><g clip-path="url(#clip0_238_1711)"><path d="M646.495 212.998L953.995 962.5C970.995 1004 928.495 1045.5 887.495 1027L620.495 909C607.495 903.5 592.995 903.5 579.995 909L312.995 1027C271.995 1045 229.495 1004 246.495 962.5L553.995 212.998C570.495 171.498 629.495 171.498 646.495 212.998Z" fill="black"/></g><defs><clipPath id="clip0_238_1711"><path width="24" fill="white" d="M0 0H1200V1200H0V0z"/></clipPath></defs></svg>

<svg xmlns="http://www.w3.org/2000/svg" width="1200" height="1200" fill="none"><g clip-path="url(#a)"><path fill="#000" d="m646.495 212.998 307.5 749.502c17 41.5-25.5 83-66.5 64.5l-267-118c-13-5.5-27.5-5.5-40.5 0l-267 118c-41 18-83.5-23-66.5-64.5l307.5-749.502c16.5-41.5 75.5-41.5 92.5 0"/></g><defs><clipPath id="a"><path fill="#fff" d="M0 0h1200v1200H0z"/></clipPath></defs></svg>
